X: 43359
T: Wren's Nest, The
R: jig
M: 6/8
K: Edorian
|:B,DE GED|GED E2D|B,DE GAB|AFD FED|
B,DE GED|E2D E2F|GAB dAB|GEE E3:|
|:GAB ded|cAA A2c|BGE E2B|AFD AFD|
GAB ded|cAA A2c|BGE AGF|GEE E3:|
|:GBe d2d|cAA B2A|GAB d2d|cAA BGE|
GBe d2d|cAA B2A|GAB dAB|GEE E3:|

